X:1
T:Title
%%score { 1 | 2 }
L:1/8
Q:1/4=100
M:6/8
K:Eb
V:1 treble nm="Grand Piano"
V:2 bass 
V:1
 G2 _G =G2 B | c2 c B3 | [FA]2 [FA] G2 G | FG=A [DB]3 | [FA]2 [FA] G2 B | c2 c B3 | %6
w: Ada~Blackman * * *||||||
 [Ge]2 [Ec] [B,EB]2 [CFA] | [B,EG]2 [A,DF] [G,E]3 | [B,DF]2 [B,EG] [B,FA]2 [B,GB] | %9
w: |||
 [B,FA]2 [B,EG] [B,DF]3 | [G,CE]2 [G,C=E] [A,CF]2 [CF] | [=B,DG]2 [B,DG] [B,DG]3 | %12
w: |||
 [B,DF]2 [B,EG] [B,FA]2 [B,GB] | [B,FA]2 [B,EG] [B,DF]3 | [B,EG]2 [B,DA] [B,EB]2 [CFA] | %15
w: |||
 [EG]2 [A,DF] [G,E]3 |] %16
w: |
V:2
 [E,B,E]2 [E,=A,E] [E,B,E]2 [E,G,E] | [E,A,E]2 [E,A,E] [E,G,E]3 | [D,B,]2 [D,B,] [E,B,E]2 [E,B,E] | %3
 [F,=A,E]2 [F,CE] [B,,B,]3 | [D,B,]2 [D,B,] [E,B,E]2 [E,G,E] | [E,A,E]2 [E,A,E] [E,G,E]3 | %6
 [C,C]2 A,, G,,2 A,, | B,,2 B,, E,3 | B,,2 B,, B,,2 E, | D,2 E, B,,3 | C,2 B,, A,,2 A,, | %11
 G,,2 G,, G,,3 | B,,2 B,, B,,2 E, | D,2 E, B,,3 | E,2 F, G,2 A, | B,2 B,, E,3 |] %16

